X:1
T:Agnes, 77.76
T:Agnes, 77.76
T:Edward Burnett, 1877
T:Public Domain Courtesy of the Cyber Hymnal™
C:Edward Burnett, 1877
Z:Public Domain
Z:Courtesy of the Cyber Hymnal™
%%score ( 1 2 ) ( 3 4 )
L:1/8
Q:1/4=110
M:4/4
K:Eb
V:1 treble 
V:2 treble 
V:3 bass 
V:4 bass 
V:1
 G2 [FB]2 [EA]2 [EG]2 | G3 z F E4 | [FA]2 [EG]2 [Dc]2 [EB]2 | [FB]2 [E=A]2 [DB]4 | %4
 e3 z d [Ec]2 [DF]2 | [EB]2 [FA]2 [EG]4 | [_DB]2 [CE]2 [=DA]2 [EG]2 | F4 E4 |] %8
V:2
 G2 x6 | D2 (D2 E4) x | x8 | x8 | E2 E2 x5 | x8 | x8 | (E2 D2) E4 |] %8
V:3
 [E,E]2 [E,D]2 [E,C]2 [E,B,]2 | B,3 z A, [C,G,]4 | [D,B,]2 [E,B,]2 [F,A,]2 [G,B,]2 | %3
 [F,D]2 [F,C]2 [B,,B,]4 | [G,B,]2 [G,B,]2 [A,C]2 [A,B,]2 x | [G,B,]2 [D,B,]2 [E,B,]4 | %6
 [G,B,]2 [A,C]2 [F,B,]2 [E,B,]2 | (B,3 A,) [E,G,]4 |] %8
V:4
 x8 | B,,2 B,,2 x5 | x8 | x8 | x9 | x8 | x8 | B,,4 x4 |] %8

